;FLAVOR:Marlin
;TIME:5840
;Filament used: 9.03207m
;Layer height: 0.28
;MINX:78
;MINY:69.5
;MINZ:0.28
;MAXX:142
;MAXY:150.5
;MAXZ:11.48
;Generated with Cura_SteamEngine 4.10.0
M140 S60
M105
M190 S60
M104 S210
M105
M109 S210
M82 ;absolute extrusion mode
M201 X500.00 Y500.00 Z100.00 E5000.00 ;Setup machine max acceleration
M203 X500.00 Y500.00 Z10.00 E50.00 ;Setup machine max feedrate
M204 P500.00 R1000.00 T500.00 ;Setup Print/Retract/Travel acceleration
M205 X8.00 Y8.00 Z0.40 E5.00 ;Setup Jerk
M220 S100 ;Reset Feedrate
M221 S100 ;Reset Flowrate

G28 ;Home

G92 E0 ;Reset Extruder
G1 Z2.0 F3000 ;Move Z Axis up
G1 X10.1 Y20 Z0.28 F5000.0 ;Move to start position
G1 X10.1 Y200.0 Z0.28 F1500.0 E15 ;Draw the first line
G1 X10.4 Y200.0 Z0.28 F5000.0 ;Move to side a little
G1 X10.4 Y20 Z0.28 F1500.0 E30 ;Draw the second line
G92 E0 ;Reset Extruder
G1 Z2.0 F3000 ;Move Z Axis up

G92 E0
G92 E0
G1 F2700 E-5
;LAYER_COUNT:41
;LAYER:0
M107
G0 F6000 X78.789 Y70.484 Z0.28
;TYPE:SKIRT
G1 F2700 E0
G1 F1200 X78.967 Y70.304 E0.01179
G1 X79.393 Y69.972 E0.03694
G1 X79.629 Y69.836 E0.04962
G1 X80.066 Y69.657 E0.07161
G1 X80.397 Y69.57 E0.08755
G1 X80.938 Y69.507 E0.11291
G1 X81.054 Y69.5 E0.11832
G1 X139.007 Y69.502 E2.81685
G1 X139.135 Y69.51 E2.82282
G1 X139.655 Y69.577 E2.84724
G1 X139.913 Y69.647 E2.85969
G1 X140.407 Y69.854 E2.88463
G1 X140.641 Y69.991 E2.89725
G1 X140.998 Y70.273 E2.91844
G1 X141.212 Y70.484 E2.93243
G1 X141.527 Y70.891 E2.9564
G1 X141.662 Y71.125 E2.96897
G1 X141.862 Y71.615 E2.99362
G1 X141.926 Y71.855 E3.00518
G1 X141.986 Y72.295 E3.02586
G1 X142 Y72.513 E3.03603
G1 X141.999 Y147.515 E6.52844
G1 X141.962 Y147.846 E6.54395
G1 X141.927 Y148.124 E6.557
G1 X141.845 Y148.433 E6.57188
G1 X141.665 Y148.87 E6.59389
G1 X141.533 Y149.098 E6.60616
G1 X141.194 Y149.539 E6.63206
G1 X141.006 Y149.726 E6.64441
G1 X140.611 Y150.026 E6.6675
G1 X140.393 Y150.152 E6.67923
G1 X139.938 Y150.343 E6.7022
G1 X139.621 Y150.429 E6.7175
G1 X139.114 Y150.492 E6.74129
G1 X138.991 Y150.5 E6.74703
G1 X80.991 Y150.499 E9.44775
G1 X80.864 Y150.491 E9.45368
G1 X80.389 Y150.43 E9.47598
G1 X80.093 Y150.351 E9.49024
G1 X79.607 Y150.15 E9.51473
G1 X79.379 Y150.019 E9.52698
G1 X78.985 Y149.716 E9.55012
G1 X78.799 Y149.528 E9.56243
G1 X78.464 Y149.087 E9.58822
G1 X78.337 Y148.867 E9.60005
G1 X78.141 Y148.397 E9.62376
G1 X78.072 Y148.139 E9.6362
G1 X78.011 Y147.663 E9.65854
G1 X78 Y147.495 E9.66638
G1 X78.001 Y72.503 E13.15832
G1 X78.009 Y72.38 E13.16406
G1 X78.072 Y71.87 E13.18799
G1 X78.138 Y71.615 E13.20026
G1 X78.328 Y71.149 E13.22369
G1 X78.488 Y70.876 E13.23843
G1 X78.789 Y70.484 E13.26144
G0 F6000 X79.106 Y70.728
G1 F1200 X79.213 Y70.62 E13.26852
G1 X79.639 Y70.288 E13.29367
G1 X79.781 Y70.206 E13.3013
G1 X80.218 Y70.027 E13.32329
G1 X80.444 Y69.967 E13.33418
G1 X80.985 Y69.904 E13.35954
G1 X81.054 Y69.9 E13.36276
G1 X139.007 Y69.902 E16.06129
G1 X139.084 Y69.907 E16.06489
G1 X139.604 Y69.974 E16.0893
G1 X139.759 Y70.016 E16.09678
G1 X140.253 Y70.223 E16.12172
G1 X140.393 Y70.305 E16.12927
G1 X140.775 Y70.608 E16.15198
G1 X140.895 Y70.729 E16.15991
G1 X141.21 Y71.136 E16.18388
G1 X141.292 Y71.276 E16.19143
G1 X141.492 Y71.766 E16.21608
G1 X141.53 Y71.91 E16.22301
G1 X141.587 Y72.327 E16.24261
G1 X141.6 Y72.513 E16.25129
G1 X141.599 Y147.515 E19.7437
G1 X141.566 Y147.79 E19.75659
G1 X141.53 Y148.073 E19.76988
G1 X141.475 Y148.281 E19.7799
G1 X141.295 Y148.718 E19.8019
G1 X141.216 Y148.855 E19.80927
G1 X140.877 Y149.296 E19.83517
G1 X140.764 Y149.408 E19.84258
G1 X140.369 Y149.708 E19.86567
G1 X140.238 Y149.783 E19.8727
G1 X139.783 Y149.974 E19.89568
G1 X139.572 Y150.032 E19.90587
G1 X139.065 Y150.095 E19.92966
G1 X138.991 Y150.1 E19.93311
G1 X80.991 Y150.099 E22.63384
G1 X80.915 Y150.094 E22.63738
G1 X80.44 Y150.033 E22.65968
G1 X80.246 Y149.981 E22.66903
G1 X79.76 Y149.78 E22.69352
G1 X79.623 Y149.702 E22.70086
G1 X79.229 Y149.399 E22.72401
G1 X79.117 Y149.286 E22.73142
G1 X78.782 Y148.845 E22.7572
G1 X78.706 Y148.713 E22.7643
G1 X78.51 Y148.243 E22.78801
G1 X78.469 Y148.088 E22.79547
G1 X78.405 Y147.58 E22.81932
G1 X78.4 Y147.495 E22.82328
G1 X78.401 Y72.503 E26.31522
G1 X78.406 Y72.429 E26.31868
G1 X78.469 Y71.919 E26.3426
G1 X78.508 Y71.766 E26.34996
G1 X78.698 Y71.3 E26.37339
G1 X78.805 Y71.12 E26.38314
G1 X79.106 Y70.728 E26.40615
G0 F6000 X79.423 Y70.971
G1 F1200 X79.459 Y70.935 E26.40852
G1 X79.885 Y70.603 E26.43367
G1 X79.932 Y70.576 E26.4362
G1 X80.391 Y70.389 E26.45928
G1 X80.49 Y70.364 E26.46403
G1 X81.031 Y70.301 E26.48939
G1 X139.007 Y70.302 E29.189
G1 X139.553 Y70.371 E29.21462
G1 X139.604 Y70.385 E29.21709
G1 X140.098 Y70.592 E29.24203
G1 X140.145 Y70.619 E29.24455
G1 X140.51 Y70.908 E29.26623
G1 X140.579 Y70.974 E29.27068
G1 X140.894 Y71.381 E29.29464
G1 X140.921 Y71.427 E29.29712
G1 X141.121 Y71.917 E29.32177
G1 X141.134 Y71.965 E29.32408
G1 X141.188 Y72.358 E29.34255
G1 X141.2 Y72.513 E29.34979
G1 X141.199 Y147.515 E32.8422
G1 X141.128 Y148.052 E32.86742
G1 X141.105 Y148.128 E32.87112
G1 X140.925 Y148.565 E32.89313
G1 X140.899 Y148.611 E32.89559
G1 X140.56 Y149.052 E32.92149
G1 X140.522 Y149.089 E32.92396
G1 X140.127 Y149.389 E32.94706
G1 X140.083 Y149.414 E32.94941
G1 X139.609 Y149.612 E32.97333
G1 X139.523 Y149.635 E32.97748
G1 X138.991 Y149.7 E33.00243
G1 X80.991 Y149.699 E35.70316
G1 X80.491 Y149.636 E35.72662
G1 X80.399 Y149.612 E35.73105
G1 X79.913 Y149.411 E35.75554
G1 X79.867 Y149.385 E35.758
G1 X79.473 Y149.082 E35.78114
G1 X79.436 Y149.044 E35.78361
G1 X79.101 Y148.603 E35.8094
G1 X79.075 Y148.559 E35.81178
G1 X78.879 Y148.089 E35.83549
G1 X78.866 Y148.037 E35.83799
G1 X78.804 Y147.551 E35.8608
G1 X78.8 Y147.495 E35.86342
G1 X78.801 Y72.503 E39.35536
G1 X78.866 Y71.968 E39.38045
G1 X78.879 Y71.917 E39.3829
G1 X79.069 Y71.451 E39.40634
G1 X79.122 Y71.363 E39.41112
G1 X79.423 Y70.971 E39.43413
G0 F6000 X79.723 Y71.237
G1 F1200 X80.113 Y70.933 E39.45716
G1 X80.501 Y70.775 E39.47667
G1 X80.553 Y70.76 E39.47919
G1 X81.066 Y70.7 E39.50324
G1 X139 Y70.702 E42.20089
G1 X139.473 Y70.763 E42.22309
G1 X139.918 Y70.949 E42.24555
G1 X140.243 Y71.206 E42.26485
G1 X140.275 Y71.235 E42.26686
G1 X140.563 Y71.606 E42.28873
G1 X140.742 Y72.043 E42.31072
G1 X140.791 Y72.401 E42.32754
G1 X140.8 Y72.514 E42.33282
G1 X140.8 Y124.4 E44.74885
G1 X138.951 Y124.4 E44.83495
G1 X138.81 Y124.459 E44.84206
G1 X138.459 Y124.81 E44.86518
G1 X138.4 Y124.951 E44.87229
G1 X138.4 Y143.049 E45.71501
G1 X138.459 Y143.19 E45.72213
G1 X138.81 Y143.541 E45.74524
G1 X138.951 Y143.6 E45.75236
G1 X140.799 Y143.6 E45.83841
G1 X140.799 Y147.503 E46.02015
G1 X140.774 Y147.681 E46.02852
G1 X140.739 Y147.956 E46.04143
G1 X140.731 Y147.985 E46.04283
G1 X140.564 Y148.392 E46.06332
G1 X140.259 Y148.787 E46.08655
G1 X139.908 Y149.054 E46.10709
G1 X139.475 Y149.235 E46.12894
G1 X139.455 Y149.241 E46.12991
G1 X138.981 Y149.3 E46.15216
G1 X81 Y149.299 E48.85199
G1 X80.56 Y149.242 E48.87265
G1 X80.535 Y149.236 E48.87385
G1 X80.088 Y149.051 E48.89638
G1 X79.738 Y148.782 E48.91693
G1 X79.437 Y148.385 E48.94013
G1 X79.257 Y147.955 E48.96184
G1 X79.203 Y147.523 E48.98211
G1 X79.2 Y147.48 E48.98412
G1 X79.201 Y72.511 E52.47499
G1 X79.26 Y72.039 E52.49714
G1 X79.433 Y71.617 E52.51837
G1 X79.447 Y71.595 E52.51959
G1 X79.723 Y71.237 E52.54064
G0 F6000 X80.01 Y71.52
G1 F1200 X80.312 Y71.284 E52.55848
G1 X80.634 Y71.153 E52.57467
G1 X81.083 Y71.1 E52.59572
G1 X138.972 Y71.102 E55.29128
G1 X139.369 Y71.153 E55.30991
G1 X139.713 Y71.297 E55.32728
G1 X139.982 Y71.51 E55.34326
G1 X140.215 Y71.809 E55.36091
G1 X140.352 Y72.147 E55.37789
G1 X140.392 Y72.435 E55.39143
G1 X140.4 Y72.536 E55.39615
G1 X140.4 Y124 E57.79253
G1 X138.951 Y124 E57.86
G1 X138.736 Y124.04 E57.87018
G1 X138.527 Y124.176 E57.88179
G1 X138.176 Y124.527 E57.90491
G1 X138.052 Y124.706 E57.91505
G1 X138 Y124.951 E57.92671
G1 X138 Y143.049 E58.76943
G1 X138.04 Y143.264 E58.77961
G1 X138.176 Y143.473 E58.79122
G1 X138.527 Y143.824 E58.81433
G1 X138.706 Y143.948 E58.82447
G1 X138.951 Y144 E58.83614
G1 X140.399 Y144 E58.90356
G1 X140.399 Y147.474 E59.06533
G1 X140.347 Y147.867 E59.08378
G1 X140.214 Y148.19 E59.10005
G1 X139.974 Y148.502 E59.11838
G1 X139.708 Y148.705 E59.13396
G1 X139.36 Y148.85 E59.15151
G1 X138.952 Y148.9 E59.17065
G1 X81.027 Y148.899 E61.86789
G1 X80.647 Y148.85 E61.88573
G1 X80.291 Y148.703 E61.90366
G1 X80.026 Y148.498 E61.91926
G1 X79.785 Y148.182 E61.93777
G1 X79.648 Y147.852 E61.9544
G1 X79.602 Y147.49 E61.9714
G1 X79.6 Y147.461 E61.97275
G1 X79.601 Y72.537 E65.46153
G1 X79.651 Y72.141 E65.48011
G1 X79.786 Y71.811 E65.49671
G1 X80.01 Y71.52 E65.51381
G0 F6000 X80.297 Y71.803
G1 F1200 X80.515 Y71.633 E65.52669
G1 X80.734 Y71.544 E65.53769
G1 X81.109 Y71.5 E65.55527
G1 X138.945 Y71.502 E68.24836
G1 X139.266 Y71.543 E68.26343
G1 X139.507 Y71.644 E68.2756
G1 X139.697 Y71.794 E68.28687
G1 X139.864 Y72.009 E68.29955
G1 X139.962 Y72.251 E68.3117
G1 X140 Y72.554 E68.32592
G1 X140 Y123.6 E70.70284
G1 X138.951 Y123.6 E70.75168
G1 X138.672 Y123.64 E70.76481
G1 X138.415 Y123.756 E70.77794
G1 X138.244 Y123.893 E70.78814
G1 X137.893 Y124.244 E70.81125
G1 X137.724 Y124.47 E70.82439
G1 X137.624 Y124.734 E70.83754
G1 X137.6 Y124.951 E70.84771
G1 X137.6 Y143.049 E71.69043
G1 X137.64 Y143.328 E71.70355
G1 X137.756 Y143.585 E71.71668
G1 X137.893 Y143.756 E71.72688
G1 X138.244 Y144.107 E71.75
G1 X138.47 Y144.276 E71.76314
G1 X138.734 Y144.376 E71.77628
G1 X138.951 Y144.4 E71.78645
G1 X139.999 Y144.4 E71.83525
G1 X139.999 Y147.446 E71.97708
G1 X139.957 Y147.764 E71.99202
G1 X139.864 Y147.988 E72.00331
G1 X139.692 Y148.213 E72.0165
G1 X139.503 Y148.356 E72.02753
G1 X139.256 Y148.46 E72.04001
G1 X138.93 Y148.5 E72.05531
G1 X81.055 Y148.499 E74.75021
G1 X80.751 Y148.46 E74.76448
G1 X80.495 Y148.354 E74.77738
G1 X80.309 Y148.211 E74.78831
G1 X80.135 Y147.981 E74.80174
G1 X80.038 Y147.749 E74.81345
G1 X80 Y147.45 E74.82748
G1 X80.001 Y72.562 E78.31458
G1 X80.041 Y72.243 E78.32955
G1 X80.136 Y72.012 E78.34118
G1 X80.297 Y71.803 E78.35347
G0 F6000 X80.486 Y72.214
G1 F1200 X80.718 Y71.982 E78.36874
G1 X81.044 Y71.909 E78.3843
G1 X81.135 Y71.9 E78.38856
G1 X138.917 Y71.902 E81.07913
G1 X139.163 Y71.933 E81.09067
G1 X139.407 Y72.074 E81.1038
G1 X139.573 Y72.355 E81.11899
G1 X139.6 Y72.573 E81.12922
G1 X139.6 Y123.2 E83.48663
G1 X138.951 Y123.2 E83.51685
G1 X138.619 Y123.24 E83.53242
G1 X138.307 Y123.357 E83.54793
G1 X137.961 Y123.61 E83.56789
G1 X137.61 Y123.961 E83.59101
G1 X137.404 Y124.224 E83.60656
G1 X137.265 Y124.528 E83.62213
G1 X137.2 Y124.951 E83.64206
G1 X137.2 Y143.049 E84.48477
G1 X137.24 Y143.381 E84.50035
G1 X137.357 Y143.693 E84.51586
G1 X137.61 Y144.039 E84.53582
G1 X137.961 Y144.39 E84.55893
G1 X138.224 Y144.596 E84.57449
G1 X138.528 Y144.735 E84.59006
G1 X138.951 Y144.8 E84.60998
G1 X139.599 Y144.8 E84.64016
G1 X139.599 Y147.417 E84.76202
G1 X139.515 Y147.787 E84.77968
G1 X139.302 Y148.007 E84.79394
G1 X139.153 Y148.069 E84.80146
G1 X138.905 Y148.1 E84.81309
G1 X81.075 Y148.099 E87.5059
G1 X80.859 Y148.071 E87.51604
G1 X80.596 Y147.927 E87.53
G1 X80.428 Y147.645 E87.54529
G1 X80.4 Y147.424 E87.55566
G1 X80.401 Y72.588 E91.04034
G1 X80.486 Y72.214 E91.0582
G0 F6000 X80.835 Y72.416
G1 F1200 X80.94 Y72.325 E91.06467
G1 X81.151 Y72.3 E91.07456
G1 X138.898 Y72.302 E93.7635
G1 X139.123 Y72.361 E93.77434
G1 X139.184 Y72.459 E93.77971
G1 X139.2 Y72.579 E93.78535
G1 X139.2 Y122.8 E96.12385
G1 X138.951 Y122.8 E96.13544
G1 X138.574 Y122.84 E96.1531
G1 X138.214 Y122.958 E96.17074
G1 X137.887 Y123.148 E96.18835
G1 X137.678 Y123.327 E96.20116
G1 X137.327 Y123.678 E96.22427
G1 X137.089 Y123.973 E96.24192
G1 X136.918 Y124.311 E96.25956
G1 X136.821 Y124.677 E96.27719
G1 X136.8 Y124.951 E96.28999
G1 X136.8 Y143.049 E97.13271
G1 X136.84 Y143.426 E97.15036
G1 X136.958 Y143.786 E97.168
G1 X137.148 Y144.113 E97.18561
G1 X137.327 Y144.322 E97.19843
G1 X137.678 Y144.673 E97.22154
G1 X137.973 Y144.911 E97.23919
G1 X138.311 Y145.082 E97.25683
G1 X138.677 Y145.179 E97.27446
G1 X138.951 Y145.2 E97.28725
G1 X139.199 Y145.2 E97.2988
G1 X139.199 Y147.388 E97.40068
G1 X139.165 Y147.585 E97.40999
G1 X139.05 Y147.679 E97.41691
G1 X138.88 Y147.7 E97.42489
G1 X81.104 Y147.699 E100.11518
G1 X80.884 Y147.643 E100.12575
G1 X80.818 Y147.542 E100.13137
G1 X80.8 Y147.393 E100.13836
G1 X80.801 Y72.614 E103.62038
G1 X80.835 Y72.416 E103.62973
G0 F6000 X81.201 Y72.7
G1 F1200 X138.8 Y72.702 E106.31178
G1 X138.8 Y122.414 E108.62658
G1 X138.534 Y122.44 E108.63903
G1 X138.132 Y122.558 E108.65854
G1 X137.76 Y122.751 E108.67805
G1 X137.395 Y123.044 E108.69985
G1 X137.044 Y123.395 E108.72296
G1 X136.778 Y123.719 E108.74248
G1 X136.577 Y124.086 E108.76196
G1 X136.45 Y124.486 E108.78151
G1 X136.4 Y124.951 E108.80328
G1 X136.4 Y143.049 E109.646
G1 X136.44 Y143.466 E109.66551
G1 X136.558 Y143.868 E109.68502
G1 X136.751 Y144.24 E109.70453
G1 X137.044 Y144.605 E109.72633
G1 X137.395 Y144.956 E109.74944
G1 X137.719 Y145.222 E109.76896
G1 X138.086 Y145.423 E109.78844
G1 X138.486 Y145.55 E109.80799
G1 X138.799 Y145.584 E109.82265
G1 X138.799 Y147.3 E109.90255
G1 X81.2 Y147.299 E112.5846
G1 X81.201 Y72.7 E116.05824
G0 F6000 X81.601 Y73.1
G1 F1200 X138.4 Y73.102 E118.70304
G1 X138.4 Y122.066 E120.98301
G1 X138.057 Y122.158 E120.99955
G1 X137.645 Y122.352 E121.02075
G1 X137.113 Y122.762 E121.05203
G1 X136.762 Y123.113 E121.07514
G1 X136.469 Y123.462 E121.09636
G1 X136.242 Y123.857 E121.11757
G1 X136.087 Y124.285 E121.13877
G1 X136 Y124.951 E121.17004
G1 X136 Y143.049 E122.01276
G1 X136.04 Y143.503 E122.03399
G1 X136.158 Y143.943 E122.0552
G1 X136.352 Y144.355 E122.0764
G1 X136.762 Y144.887 E122.10768
G1 X137.113 Y145.238 E122.13079
G1 X137.462 Y145.531 E122.15201
G1 X137.857 Y145.758 E122.17322
G1 X138.285 Y145.913 E122.19442
G1 X138.399 Y145.928 E122.19977
G1 X138.399 Y146.9 E122.24503
G1 X81.6 Y146.899 E124.88983
G1 X81.601 Y73.1 E128.32622
G0 F6000 X82.001 Y73.5
G1 F1200 X138 Y73.502 E130.93377
G1 X138 Y121.756 E133.18068
G1 X137.988 Y121.759 E133.18126
G1 X137.539 Y121.953 E133.20403
G1 X137.127 Y122.218 E133.22684
G1 X136.83 Y122.479 E133.24525
G1 X136.479 Y122.83 E133.26837
G1 X136.162 Y123.203 E133.29116
G1 X135.91 Y123.623 E133.31397
G1 X135.73 Y124.078 E133.33675
G1 X135.626 Y124.556 E133.35953
G1 X135.6 Y124.951 E133.37796
G1 X135.6 Y143.049 E134.22068
G1 X135.64 Y143.537 E134.24348
G1 X135.759 Y144.012 E134.26628
G1 X135.953 Y144.461 E134.28906
G1 X136.218 Y144.873 E134.31187
G1 X136.479 Y145.17 E134.33028
G1 X136.83 Y145.521 E134.35339
G1 X137.203 Y145.838 E134.37619
G1 X137.623 Y146.09 E134.39899
G1 X137.999 Y146.239 E134.41783
G1 X137.999 Y146.5 E134.42998
G1 X82 Y146.499 E137.03753
G1 X82.001 Y73.5 E140.43667
G0 F6000 X82.401 Y73.9
G1 F1200 X137.6 Y73.902 E143.00696
G1 X137.6 Y121.49 E145.22286
G1 X137.441 Y121.554 E145.23084
G1 X136.993 Y121.82 E145.2551
G1 X136.547 Y122.196 E145.28227
G1 X136.196 Y122.547 E145.30538
G1 X135.857 Y122.943 E145.32965
G1 X135.582 Y123.385 E145.35389
G1 X135.378 Y123.865 E145.37818
G1 X135.25 Y124.37 E145.40244
G1 X135.2 Y124.951 E145.42959
G1 X135.2 Y143.049 E146.27231
G1 X135.24 Y143.569 E146.29659
G1 X135.359 Y144.076 E146.32084
G1 X135.554 Y144.559 E146.3451
G1 X135.82 Y145.007 E146.36936
G1 X136.196 Y145.453 E146.39652
G1 X136.547 Y145.804 E146.41964
G1 X136.893 Y146.1 E146.44084
G1 X82.4 Y146.099 E148.97826
G1 X82.401 Y73.9 E152.34015
G0 F6000 X82.801 Y74.3
G1 F1200 X137.2 Y74.302 E154.87319
G1 X137.2 Y121.237 E157.05868
G1 X136.867 Y121.423 E157.07644
G1 X136.264 Y121.913 E157.11262
G1 X135.913 Y122.264 E157.13574
G1 X135.553 Y122.681 E157.16139
G1 X135.256 Y123.145 E157.18704
G1 X135.03 Y123.648 E157.21272
G1 X134.879 Y124.178 E157.23838
G1 X134.8 Y124.951 E157.27456
G1 X134.8 Y143.049 E158.11728
G1 X134.84 Y143.599 E158.14296
G1 X134.959 Y144.137 E158.16862
G1 X135.155 Y144.652 E158.19428
G1 X135.423 Y145.133 E158.21991
G1 X135.884 Y145.7 E158.25394
G1 X82.8 Y145.699 E160.72576
G1 X82.801 Y74.3 E164.05039
G0 F6000 X83.201 Y74.7
;TYPE:SUPPORT
G1 F1200 X136.8 Y74.702 E166.54619
G1 X136.8 Y120.812 E168.69326
G1 X134.4 Y123.211 E168.85127
G1 X134.4 Y144.789 E169.85603
G1 X134.912 Y145.3 E169.88972
