;FLAVOR:Marlin
;TIME:10450
;Filament used: 14.6075m
;Layer height: 0.28
;MINX:78
;MINY:59.5
;MINZ:0.28
;MAXX:142
;MAXY:160.5
;MAXZ:43.96
;Generated with Cura_SteamEngine 4.10.0
M140 S60
M105
M190 S60
M104 S210
M105
M109 S210
M82 ;absolute extrusion mode
M201 X500.00 Y500.00 Z100.00 E5000.00 ;Setup machine max acceleration
M203 X500.00 Y500.00 Z10.00 E50.00 ;Setup machine max feedrate
M204 P500.00 R1000.00 T500.00 ;Setup Print/Retract/Travel acceleration
M205 X8.00 Y8.00 Z0.40 E5.00 ;Setup Jerk
M220 S100 ;Reset Feedrate
M221 S100 ;Reset Flowrate

G28 ;Home

G92 E0 ;Reset Extruder
G1 Z2.0 F3000 ;Move Z Axis up
G1 X10.1 Y20 Z0.28 F5000.0 ;Move to start position
G1 X10.1 Y200.0 Z0.28 F1500.0 E15 ;Draw the first line
G1 X10.4 Y200.0 Z0.28 F5000.0 ;Move to side a little
G1 X10.4 Y20 Z0.28 F1500.0 E30 ;Draw the second line
G92 E0 ;Reset Extruder
G1 Z2.0 F3000 ;Move Z Axis up

G92 E0
G92 E0
G1 F2700 E-5
;LAYER_COUNT:157
;LAYER:0
M107
G0 F6000 X78.826 Y70.437 Z0.28
;TYPE:SKIRT
G1 F2700 E0
G1 F1200 X78.93 Y70.332 E0.00688
G1 X79.161 Y70.132 E0.02111
G1 X79.316 Y70.02 E0.03001
G1 X79.587 Y69.857 E0.04474
G1 X79.722 Y69.789 E0.05178
G1 X80.007 Y69.672 E0.06612
G1 X80.156 Y69.624 E0.07341
G1 X80.468 Y69.55 E0.08834
G1 X80.621 Y69.526 E0.09556
G1 X80.914 Y69.503 E0.10924
G1 X80.992 Y69.5 E0.11288
G1 X94.091 Y69.5 E0.72282
G1 X94.171 Y68.962 E0.74815
G1 X94.183 Y68.898 E0.75118
G1 X94.327 Y68.232 E0.78291
G1 X94.343 Y68.166 E0.78607
G1 X94.535 Y67.5 E0.81834
G1 X94.554 Y67.441 E0.82123
G1 X94.793 Y66.772 E0.85431
G1 X94.82 Y66.705 E0.85767
G1 X95.095 Y66.08 E0.88947
G1 X95.122 Y66.024 E0.89236
G1 X95.447 Y65.395 E0.92533
G1 X95.48 Y65.336 E0.92848
G1 X95.834 Y64.752 E0.96028
G1 X95.871 Y64.695 E0.96344
G1 X96.277 Y64.117 E0.99633
G1 X96.315 Y64.066 E0.99929
G1 X96.751 Y63.523 E1.03172
G1 X96.796 Y63.471 E1.03492
G1 X97.259 Y62.969 E1.06672
G1 X97.302 Y62.925 E1.06959
G1 X97.807 Y62.441 E1.10216
G1 X97.86 Y62.394 E1.10546
G1 X98.441 Y61.913 E1.14058
G1 X99.011 Y61.497 E1.17344
G1 X99.654 Y61.091 E1.20885
G1 X99.71 Y61.057 E1.2119
G1 X100.32 Y60.727 E1.24419
G1 X100.378 Y60.698 E1.24721
G1 X101.011 Y60.407 E1.27965
G1 X101.073 Y60.381 E1.28278
G1 X101.722 Y60.134 E1.31512
G1 X101.785 Y60.113 E1.31821
G1 X102.443 Y59.911 E1.35026
G1 X102.508 Y59.893 E1.3534
G1 X103.199 Y59.731 E1.38645
G1 X103.936 Y59.606 E1.42126
G1 X104.003 Y59.597 E1.4244
G1 X104.705 Y59.528 E1.45725
G1 X104.77 Y59.524 E1.46028
G1 X105.49 Y59.5 E1.49383
G1 X114.509 Y59.5 E1.91379
G1 X115.248 Y59.525 E1.94822
G1 X115.313 Y59.529 E1.95125
G1 X116.006 Y59.598 E1.98368
G1 X116.072 Y59.607 E1.98678
G1 X116.737 Y59.718 E2.01818
G1 X116.802 Y59.731 E2.02126
G1 X117.5 Y59.896 E2.05466
G1 X117.564 Y59.913 E2.05774
G1 X118.22 Y60.115 E2.08971
G1 X118.935 Y60.386 E2.12531
G1 X118.997 Y60.412 E2.12844
G1 X119.627 Y60.702 E2.16073
G1 X119.686 Y60.731 E2.1638
G1 X120.298 Y61.063 E2.19622
G1 X120.353 Y61.095 E2.19918
G1 X120.935 Y61.461 E2.23119
G1 X120.992 Y61.5 E2.23441
G1 X121.565 Y61.918 E2.26744
G1 X121.616 Y61.958 E2.27045
G1 X122.146 Y62.4 E2.30259
G1 X122.197 Y62.445 E2.30575
G1 X122.702 Y62.928 E2.33829
G1 X123.209 Y63.478 E2.37313
G1 X123.253 Y63.528 E2.37623
G1 X123.69 Y64.072 E2.40872
G1 X123.729 Y64.124 E2.41175
G1 X124.13 Y64.696 E2.44427
G1 X124.167 Y64.752 E2.4474
G1 X124.524 Y65.342 E2.47951
G1 X124.881 Y66.03 E2.5156
G1 X124.908 Y66.085 E2.51845
G1 X125.18 Y66.701 E2.54981
G1 X125.207 Y66.77 E2.55326
G1 X125.448 Y67.447 E2.58672
G1 X125.467 Y67.507 E2.58965
G1 X125.658 Y68.174 E2.62196
G1 X125.674 Y68.238 E2.62503
G1 X125.818 Y68.904 E2.65676
G1 X125.83 Y68.969 E2.65984
G1 X125.908 Y69.5 E2.68483
G1 X139.014 Y69.5 E3.2951
G1 X139.097 Y69.503 E3.29897
G1 X139.396 Y69.528 E3.31294
G1 X139.544 Y69.552 E3.31992
G1 X139.843 Y69.623 E3.33423
G1 X140.012 Y69.678 E3.3425
G1 X140.293 Y69.795 E3.35668
G1 X140.432 Y69.866 E3.36394
G1 X140.696 Y70.028 E3.37837
G1 X140.824 Y70.121 E3.38573
G1 X141.063 Y70.326 E3.4004
G1 X141.168 Y70.43 E3.40728
G1 X141.405 Y70.706 E3.42422
G1 X141.479 Y70.814 E3.43031
G1 X141.643 Y71.087 E3.44514
G1 X141.711 Y71.222 E3.45218
G1 X141.828 Y71.507 E3.46653
G1 X141.876 Y71.656 E3.47382
G1 X141.95 Y71.968 E3.48875
G1 X141.974 Y72.119 E3.49587
G1 X141.997 Y72.407 E3.50932
G1 X142 Y72.487 E3.51305
G1 X142 Y147.519 E7.00685
G1 X141.996 Y147.604 E7.01082
G1 X141.965 Y147.953 E7.02713
G1 X141.944 Y148.068 E7.03257
G1 X141.871 Y148.365 E7.04681
G1 X141.822 Y148.512 E7.05403
G1 X141.704 Y148.794 E7.06826
G1 X141.635 Y148.93 E7.07537
G1 X141.473 Y149.195 E7.08983
G1 X141.379 Y149.324 E7.09726
G1 X141.174 Y149.563 E7.11192
G1 X141.07 Y149.668 E7.1188
G1 X140.839 Y149.868 E7.13303
G1 X140.684 Y149.98 E7.14194
G1 X140.413 Y150.143 E7.15666
G1 X140.278 Y150.211 E7.1637
G1 X139.993 Y150.328 E7.17805
G1 X139.844 Y150.376 E7.18533
G1 X139.532 Y150.45 E7.20027
G1 X139.379 Y150.474 E7.20748
G1 X139.086 Y150.497 E7.22116
G1 X139.008 Y150.5 E7.2248
G1 X125.909 Y150.5 E7.83474
G1 X125.829 Y151.038 E7.86007
G1 X125.817 Y151.102 E7.8631
G1 X125.673 Y151.768 E7.89483
G1 X125.657 Y151.834 E7.89799
G1 X125.465 Y152.5 E7.93027
G1 X125.446 Y152.56 E7.9332
G1 X125.208 Y153.226 E7.96613
G1 X124.905 Y153.919 E8.00135
G1 X124.879 Y153.974 E8.00418
G1 X124.557 Y154.6 E8.03696
G1 X124.522 Y154.663 E8.04032
G1 X124.165 Y155.25 E8.07231
G1 X124.13 Y155.304 E8.0753
G1 X123.724 Y155.883 E8.10823
G1 X123.684 Y155.936 E8.11132
G1 X123.249 Y156.476 E8.14361
G1 X122.744 Y157.028 E8.17845
G1 X122.699 Y157.075 E8.18148
G1 X122.192 Y157.56 E8.21415
G1 X122.141 Y157.606 E8.21735
G1 X121.611 Y158.047 E8.24945
G1 X120.986 Y158.504 E8.2855
G1 X120.93 Y158.542 E8.28866
G1 X120.347 Y158.909 E8.32073
G1 X120.29 Y158.943 E8.32382
G1 X119.68 Y159.273 E8.35612
G1 X119.622 Y159.302 E8.35914
G1 X118.989 Y159.593 E8.39158
G1 X118.927 Y159.619 E8.39471
G1 X118.278 Y159.866 E8.42704
G1 X118.215 Y159.887 E8.43014
G1 X117.557 Y160.089 E8.46219
G1 X117.492 Y160.107 E8.46533
G1 X116.801 Y160.269 E8.49838
G1 X116.064 Y160.394 E8.53318
G1 X115.997 Y160.403 E8.53633
G1 X115.295 Y160.472 E8.56918
G1 X115.23 Y160.476 E8.57221
G1 X114.51 Y160.5 E8.60575
G1 X105.448 Y160.499 E9.02772
G1 X104.752 Y160.475 E9.06015
G1 X104.687 Y160.471 E9.06318
G1 X103.994 Y160.402 E9.09561
G1 X103.928 Y160.393 E9.09871
G1 X103.263 Y160.282 E9.1301
G1 X103.198 Y160.269 E9.13319
G1 X102.5 Y160.104 E9.16659
G1 X102.436 Y160.087 E9.16967
G1 X101.78 Y159.885 E9.20163
G1 X101.065 Y159.614 E9.23724
G1 X101.003 Y159.588 E9.24037
G1 X100.373 Y159.298 E9.27266
G1 X100.314 Y159.269 E9.27572
G1 X99.702 Y158.937 E9.30814
G1 X99.647 Y158.905 E9.31111
G1 X99.065 Y158.539 E9.34312
G1 X99.008 Y158.5 E9.34634
G1 X98.435 Y158.082 E9.37936
G1 X98.384 Y158.042 E9.38238
G1 X97.854 Y157.6 E9.41452
G1 X97.803 Y157.555 E9.41768
G1 X97.297 Y157.071 E9.45029
G1 X97.251 Y157.024 E9.45335
G1 X96.789 Y156.52 E9.48519
G1 X96.747 Y156.471 E9.48819
G1 X96.313 Y155.932 E9.52041
G1 X96.273 Y155.878 E9.52354
G1 X95.828 Y155.24 E9.55976
G1 X95.474 Y154.655 E9.5916
G1 X95.441 Y154.596 E9.59475
G1 X95.118 Y153.97 E9.62755
G1 X94.816 Y153.284 E9.66245
G1 X94.79 Y153.22 E9.66567
G1 X94.552 Y152.554 E9.6986
G1 X94.342 Y151.827 E9.73384
G1 X94.326 Y151.762 E9.73695
G1 X94.182 Y151.096 E9.76868
G1 X94.17 Y151.031 E9.77176
G1 X94.092 Y150.5 E9.79675
G1 X80.986 Y150.5 E10.40702
G1 X80.903 Y150.497 E10.41089
G1 X80.604 Y150.472 E10.42486
G1 X80.456 Y150.448 E10.43184
G1 X80.157 Y150.377 E10.44615
G1 X79.987 Y150.322 E10.45447
G1 X79.704 Y150.204 E10.46875
G1 X79.565 Y150.133 E10.47602
G1 X79.303 Y149.972 E10.49034
G1 X79.175 Y149.879 E10.4977
G1 X78.934 Y149.672 E10.5125
G1 X78.83 Y149.567 E10.51938
G1 X78.631 Y149.337 E10.53354
G1 X78.533 Y149.204 E10.54123
G1 X78.364 Y148.927 E10.55634
G1 X78.295 Y148.79 E10.56348
G1 X78.179 Y148.511 E10.57755
G1 X78.13 Y148.36 E10.58495
G1 X78.051 Y148.031 E10.6007
G1 X78.026 Y147.878 E10.60792
G1 X78.003 Y147.593 E10.62123
G1 X78 Y147.513 E10.62496
G1 X78 Y72.481 E14.11877
G1 X78.004 Y72.396 E14.12273
G1 X78.035 Y72.047 E14.13904
G1 X78.056 Y71.932 E14.14449
G1 X78.129 Y71.635 E14.15873
G1 X78.177 Y71.489 E14.16588
G1 X78.295 Y71.206 E14.18016
G1 X78.366 Y71.068 E14.18739
G1 X78.528 Y70.804 E14.20181
G1 X78.621 Y70.676 E14.20918
G1 X78.826 Y70.437 E14.22384
G0 F6000 X79.13 Y70.697
G1 F1200 X79.192 Y70.634 E14.22796
G1 X79.423 Y70.434 E14.24218
G1 X79.522 Y70.363 E14.24786
G1 X79.793 Y70.2 E14.26258
G1 X79.874 Y70.159 E14.26681
G1 X80.159 Y70.042 E14.28116
G1 X80.249 Y70.013 E14.28556
G1 X80.561 Y69.939 E14.30049
G1 X80.652 Y69.925 E14.30478
G1 X80.945 Y69.902 E14.31846
G1 X80.992 Y69.9 E14.32065
G1 X94.447 Y69.9 E14.94717
G1 X94.462 Y69.722 E14.95549
G1 X94.566 Y69.021 E14.98849
G1 X94.727 Y68.277 E15.02394
G1 X94.919 Y67.611 E15.05621
G1 X95.17 Y66.906 E15.09106
G1 X95.461 Y66.241 E15.12486
G1 X95.802 Y65.579 E15.15953
G1 X95.822 Y65.543 E15.16145
G1 X96.198 Y64.925 E15.19513
G1 X96.627 Y64.316 E15.22982
G1 X97.063 Y63.773 E15.26225
G1 X97.553 Y63.24 E15.29596
G1 X98.084 Y62.73 E15.33024
G1 X98.116 Y62.701 E15.33225
G1 X98.677 Y62.236 E15.36618
G1 X99.247 Y61.82 E15.39904
G1 X99.867 Y61.429 E15.43317
G1 X100.511 Y61.079 E15.4673
G1 X101.178 Y60.771 E15.50151
G1 X101.865 Y60.508 E15.53577
G1 X101.902 Y60.495 E15.53759
G1 X102.56 Y60.293 E15.56964
G1 X103.29 Y60.121 E15.60457
G1 X103.328 Y60.113 E15.60637
G1 X104.002 Y60 E15.6382
G1 X104.744 Y59.926 E15.67292
G1 X104.783 Y59.923 E15.67474
G1 X105.47 Y59.9 E15.70675
G1 X114.529 Y59.9 E16.12857
G1 X115.234 Y59.924 E16.16142
G1 X115.966 Y59.996 E16.19567
G1 X116.006 Y60.001 E16.19754
G1 X116.71 Y60.12 E16.23079
G1 X117.408 Y60.285 E16.26419
G1 X118.103 Y60.498 E16.29804
G1 X118.14 Y60.51 E16.29985
G1 X118.793 Y60.759 E16.33239
G1 X119.46 Y61.065 E16.36656
G1 X120.107 Y61.415 E16.40081
G1 X120.722 Y61.8 E16.4346
G1 X120.757 Y61.823 E16.43655
G1 X121.33 Y62.241 E16.46957
G1 X121.89 Y62.707 E16.5035
G1 X121.921 Y62.734 E16.50541
G1 X122.426 Y63.217 E16.53795
G1 X122.915 Y63.748 E16.57156
G1 X123.378 Y64.322 E16.6059
G1 X123.824 Y64.959 E16.64211
G1 X124.181 Y65.549 E16.67422
G1 X124.526 Y66.214 E16.70911
G1 X124.814 Y66.863 E16.74217
G1 X125.071 Y67.581 E16.77768
G1 X125.083 Y67.617 E16.77945
G1 X125.274 Y68.284 E16.81175
G1 X125.435 Y69.027 E16.84715
G1 X125.54 Y69.738 E16.88062
G1 X125.554 Y69.9 E16.88819
G1 X139.014 Y69.9 E17.51495
G1 X139.064 Y69.902 E17.51728
G1 X139.363 Y69.927 E17.53125
G1 X139.452 Y69.941 E17.53544
G1 X139.791 Y70.023 E17.55168
G1 X139.859 Y70.047 E17.55504
G1 X140.14 Y70.164 E17.56921
G1 X140.223 Y70.207 E17.57357
G1 X140.487 Y70.369 E17.58799
G1 X140.564 Y70.425 E17.59242
G1 X140.803 Y70.63 E17.60708
G1 X140.866 Y70.692 E17.6112
G1 X141.088 Y70.95 E17.62705
G1 X141.136 Y71.02 E17.631
G1 X141.3 Y71.293 E17.64583
G1 X141.341 Y71.374 E17.65006
G1 X141.458 Y71.659 E17.6644
G1 X141.487 Y71.749 E17.66881
G1 X141.561 Y72.061 E17.68374
G1 X141.575 Y72.151 E17.68798
G1 X141.598 Y72.439 E17.70143
G1 X141.6 Y72.487 E17.70367
G1 X141.6 Y147.519 E21.19747
G1 X141.598 Y147.57 E21.19985
G1 X141.57 Y147.887 E21.21467
G1 X141.556 Y147.972 E21.21868
G1 X141.483 Y148.269 E21.23292
G1 X141.453 Y148.358 E21.23729
G1 X141.335 Y148.64 E21.25153
G1 X141.294 Y148.721 E21.25576
G1 X141.132 Y148.986 E21.27022
G1 X141.075 Y149.064 E21.27472
G1 X140.87 Y149.303 E21.28938
G1 X140.808 Y149.366 E21.29349
G1 X140.577 Y149.566 E21.30772
G1 X140.478 Y149.637 E21.31339
G1 X140.207 Y149.8 E21.32812
G1 X140.126 Y149.841 E21.33235
G1 X139.841 Y149.958 E21.34669
G1 X139.751 Y149.987 E21.3511
G1 X139.439 Y150.061 E21.36603
G1 X139.348 Y150.075 E21.37031
G1 X139.055 Y150.098 E21.384
G1 X139.008 Y150.1 E21.38619
G1 X125.553 Y150.1 E22.01271
G1 X125.538 Y150.278 E22.02103
G1 X125.434 Y150.979 E22.05403
G1 X125.273 Y151.723 E22.08947
G1 X125.081 Y152.389 E22.12175
G1 X124.831 Y153.091 E22.15645
G1 X124.539 Y153.758 E22.19035
G1 X124.524 Y153.791 E22.19204
G1 X124.181 Y154.455 E22.22684
G1 X123.824 Y155.042 E22.25883
G1 X123.396 Y155.653 E22.29357
G1 X122.937 Y156.225 E22.32772
G1 X122.912 Y156.255 E22.32954
G1 X122.423 Y156.786 E22.36315
G1 X121.916 Y157.271 E22.39582
G1 X121.355 Y157.739 E22.42984
G1 X120.75 Y158.181 E22.46473
G1 X120.717 Y158.204 E22.4666
G1 X120.134 Y158.571 E22.49868
G1 X119.489 Y158.921 E22.53285
G1 X118.822 Y159.229 E22.56706
G1 X118.135 Y159.492 E22.60131
G1 X118.098 Y159.505 E22.60314
G1 X117.44 Y159.707 E22.63519
G1 X116.71 Y159.879 E22.67011
G1 X116.672 Y159.887 E22.67192
G1 X115.998 Y160 E22.70374
G1 X115.256 Y160.074 E22.73846
G1 X115.217 Y160.077 E22.74028
G1 X114.53 Y160.1 E22.77229
G1 X105.461 Y160.1 E23.19458
G1 X104.765 Y160.076 E23.22701
G1 X104.034 Y160.004 E23.26121
G1 X103.994 Y159.999 E23.26309
G1 X103.29 Y159.88 E23.29634
G1 X102.592 Y159.715 E23.32973
G1 X101.897 Y159.502 E23.36358
G1 X101.86 Y159.49 E23.36539
G1 X101.207 Y159.241 E23.39794
G1 X100.54 Y158.935 E23.43211
G1 X99.893 Y158.585 E23.46636
G1 X99.278 Y158.2 E23.50014
G1 X99.243 Y158.177 E23.50209
G1 X98.67 Y157.759 E23.53512
G1 X98.11 Y157.293 E23.56904
G1 X98.079 Y157.266 E23.57096
G1 X97.573 Y156.782 E23.60356
G1 X97.059 Y156.22 E23.63903
G1 X96.6 Y155.649 E23.67314
G1 X96.192 Y155.066 E23.70627
G1 X95.817 Y154.448 E23.73993
G1 X95.474 Y153.786 E23.77465
G1 X95.457 Y153.752 E23.77642
G1 X95.182 Y153.124 E23.80835
G1 X94.929 Y152.419 E23.84322
G1 X94.726 Y151.716 E23.8773
G1 X94.565 Y150.973 E23.9127
G1 X94.46 Y150.262 E23.94616
G1 X94.446 Y150.1 E23.95373
G1 X80.986 Y150.1 E24.58049
G1 X80.936 Y150.098 E24.58282
G1 X80.637 Y150.073 E24.59679
G1 X80.548 Y150.059 E24.60098
G1 X80.209 Y149.977 E24.61722
G1 X80.141 Y149.953 E24.62058
G1 X79.858 Y149.835 E24.63486
G1 X79.775 Y149.792 E24.63921
G1 X79.513 Y149.631 E24.65353
G1 X79.436 Y149.575 E24.65796
G1 X79.195 Y149.368 E24.67276
G1 X79.132 Y149.306 E24.67687
G1 X78.933 Y149.076 E24.69104
G1 X78.875 Y148.995 E24.69567
G1 X78.706 Y148.718 E24.71078
G1 X78.664 Y148.636 E24.71507
G1 X78.548 Y148.357 E24.72914
G1 X78.519 Y148.267 E24.73355
G1 X78.44 Y147.938 E24.7493
G1 X78.425 Y147.846 E24.75364
G1 X78.402 Y147.561 E24.76696
G1 X78.4 Y147.513 E24.76919
G1 X78.4 Y72.481 E28.263
G1 X78.402 Y72.43 E28.26537
G1 X78.43 Y72.113 E28.28019
G1 X78.444 Y72.028 E28.2842
G1 X78.517 Y71.731 E28.29844
G1 X78.546 Y71.643 E28.30276
G1 X78.664 Y71.36 E28.31704
G1 X78.707 Y71.277 E28.32139
G1 X78.869 Y71.013 E28.33581
G1 X78.925 Y70.936 E28.34024
G1 X79.13 Y70.697 E28.35491
G0 F6000 X79.433 Y70.958
G1 F1200 X79.454 Y70.937 E28.35629
G1 X79.698 Y70.727 E28.37128
G1 X79.728 Y70.706 E28.37299
G1 X79.999 Y70.543 E28.38771
G1 X80.026 Y70.529 E28.38913
G1 X80.311 Y70.412 E28.40347
G1 X80.341 Y70.402 E28.40494
G1 X80.653 Y70.328 E28.41988
G1 X80.683 Y70.324 E28.42129
G1 X80.992 Y70.3 E28.43572
G1 X94.815 Y70.3 E29.07937
G1 X94.858 Y69.781 E29.10362
G1 X94.965 Y69.067 E29.13724
G1 X95.112 Y68.388 E29.16959
G1 X95.308 Y67.71 E29.20245
G1 X95.552 Y67.027 E29.23623
G1 X95.832 Y66.391 E29.26858
G1 X96.164 Y65.75 E29.3022
G1 X96.525 Y65.155 E29.3346
G1 X96.939 Y64.567 E29.36809
G1 X97.384 Y64.013 E29.40118
G1 X97.856 Y63.503 E29.43353
G1 X98.371 Y63.009 E29.46676
G1 X98.913 Y62.559 E29.49957
G1 X99.495 Y62.136 E29.53307
G1 X100.091 Y61.761 E29.56586
G1 X100.712 Y61.425 E29.59874
G1 X101.358 Y61.129 E29.63182
G1 X102.019 Y60.878 E29.66475
G1 X102.69 Y60.672 E29.69743
G1 X103.394 Y60.508 E29.73109
G1 X104.081 Y60.393 E29.76352
G1 X104.796 Y60.323 E29.79698
G1 X105.483 Y60.3 E29.82898
G1 X114.516 Y60.3 E30.2496
G1 X115.234 Y60.325 E30.28305
G1 X115.94 Y60.396 E30.31609
G1 X116.618 Y60.509 E30.3481
G1 X117.329 Y60.678 E30.38213
G1 X117.997 Y60.884 E30.41468
G1 X118.663 Y61.138 E30.44787
G1 X119.304 Y61.434 E30.48074
G1 X119.927 Y61.773 E30.51377
G1 X120.521 Y62.146 E30.54643
G1 X121.104 Y62.572 E30.58005
G1 X121.644 Y63.023 E30.61281
G1 X122.158 Y63.516 E30.64598
G1 X122.629 Y64.029 E30.67841
G1 X123.074 Y64.583 E30.71149
G1 X123.482 Y65.166 E30.74463
G1 X123.846 Y65.768 E30.77739
G1 X124.176 Y66.408 E30.81092
G1 X124.453 Y67.038 E30.84296
G1 X124.698 Y67.727 E30.87701
G1 X124.892 Y68.407 E30.90994
G1 X125.039 Y69.086 E30.94229
G1 X125.145 Y69.81 E30.97636
